src/raw/laundry/icon_24.svg

<svg width="24" height="24" viewBox="0 0 24 24" fill="none" xmlns="http://www.w3.org/2000/svg">
<path d="M20.25 0.75H3.75C2.92157 0.75 2.25 1.42157 2.25 2.25V21.75C2.25 22.5784 2.92157 23.25 3.75 23.25H20.25C21.0784 23.25 21.75 22.5784 21.75 21.75V2.25C21.75 1.42157 21.0784 0.75 20.25 0.75Z" stroke="#71717A" stroke-width="1.5" stroke-linecap="round" stroke-linejoin="round"/>
<path d="M5.25 3.75H8.25" stroke="#71717A" stroke-width="1.5" stroke-linecap="round" stroke-linejoin="round"/>
<path d="M19 3.20001V4.20001" stroke="#71717A" stroke-width="1.5" stroke-linecap="round" stroke-linejoin="round"/>
<path d="M16 3.20001V4.20001" stroke="#71717A" stroke-width="1.5" stroke-linecap="round" stroke-linejoin="round"/>
<path d="M2.25 6.75H21.75" stroke="#71717A" stroke-width="1.5" stroke-linecap="round" stroke-linejoin="round"/>
<path d="M12 20.25C14.8995 20.25 17.25 17.8995 17.25 15C17.25 12.1005 14.8995 9.75 12 9.75C9.10051 9.75 6.75 12.1005 6.75 15C6.75 17.8995 9.10051 20.25 12 20.25Z" stroke="#71717A" stroke-width="1.5" stroke-linecap="round" stroke-linejoin="round"/>
<path d="M9.75 15C9.75 14.4033 9.98705 13.831 10.409 13.409C10.818 13 11.3683 12.7647 11.9451 12.7507" stroke="#71717A" stroke-width="1.5" stroke-linecap="round" stroke-linejoin="round"/>
</svg>

<svg xmlns="http://www.w3.org/2000/svg" width="24" height="24" fill="none" viewBox="0 0 24 24">
  <path stroke="#3F3F46" stroke-linecap="round" stroke-linejoin="round" stroke-width="1.5"
    d="M20.25.75H3.75a1.5 1.5 0 0 0-1.5 1.5v19.5a1.5 1.5 0 0 0 1.5 1.5h16.5a1.5 1.5 0 0 0 1.5-1.5V2.25a1.5 1.5 0 0 0-1.5-1.5ZM5.25 3.75h3M16.5 3v1.5M18.75 3v1.5M2.25 6.75h19.5" />
  <path stroke="#3F3F46" stroke-linecap="round" stroke-linejoin="round" stroke-width="1.5"
    d="M12 20.25a5.25 5.25 0 1 0 0-10.5 5.25 5.25 0 0 0 0 10.5Z" />
  <path stroke="#3F3F46" stroke-linecap="round" stroke-linejoin="round" stroke-width="1.5"
    d="M9.75 15a2.25 2.25 0 0 1 2.22-2.25" />
</svg>
